X:1
T:Mrs. C. H. Morris
T:Mrs. C. H. M.
T:Jesus in My Heart
%%score { ( 1 2 ) | ( 3 4 ) }
L:1/8
M:4/4
K:Bb
V:1 treble 
V:2 treble 
V:3 bass 
V:4 bass 
V:1
{/x} F3 =E G2 F2 | B3 c B2 A2 | A3 G F2 C2 | D2 E2 F4 | d3 c B2 F2 | B3 A A2 G2 | G3 A B2 d2 | %7
w: I have Je\- sus|dwell\- ing with me|Ev\- 'ry hour of|ev\- 'ry day,|So what\- ev\- er|may be\- fall me,|"All is well," my|
w: Tho' my path\- way|leads thro' sha\- dows,|I can hear His|voice di\- vine,|And can feel the|lov\- ing hand\- clasp|Of a Fa\- ther's|
w: In this world of|liv\- ing plea\- sure|"Je\- sus on- ly|would I know;|Sat\- is\- fied His|steps to fol\- low,|And His great sal\-|
 c2 _E2 F4 |"^Chorus" B3 A cBFB | BAA^G A4 | c3 =B dc_BF | dddd e4 | FF=EF G2 F2 | BAcB A2 G2 | %14
w: heart can say.|Je\- sus, bless\- ed Je\- sus|Dwells with\- in my heart,|In the tem\- ple for His|dwell\- ing set a\- part;|I can ne'er be lone\- ly,|I have Je\- sus on\- ly,|
w: hand on mine.|||||||
w: va\- tion know.|||||||
"^rit."[Q:1/4=112]"^Moderato" B[Q:1/4=96]"^Regulier"B[Q:1/4=80]"^Andante"BB[Q:1/4=48]"^Grave" !fermata![Bf][Q:1/4=80]"^Andante"B[Q:1/4=48]"^Grave"!fermata!c[Q:1/4=76]"^Andante"B | %15
w: Je\- sus, bless\- ed Je\- sus in my|
w: |
w: |
 B6 z2 |] %16
w: heart.|
w: |
w: |
V:2
 D3 ^C C2 D2 | D3 D E2 E2 | E3 E E2 A,2 | B,2 C2 D4 | F3 E D2 D2 | F3 F F2 E2 | ^D3 E E2 E2 | %7
 =E2 C2 C4 | D3 D DDDD | EEEE E4 | E3 D EEEE | FF^GG A4 | DD^CD =C2 D2 | FFFF F2 E2 | DD=EE FF_ED | %15
 D6 z2 |] %16
V:3
 B,3 G, =E,2 F,2 | F,3 F, F,2 C2 | C3 B, A,2 F,2 | F,2 F,2 F,4 | B,3 F, F,2 B,2 | B,3 B, B,2 B,2 | %6
 B,3 B, G,2 G,2 | G,2 B,2 A,4 | F,3 F, F,F,B,F, | F,F,C=B, C4 | A,3 ^G, A,A,CC | B,B,FF F4 | %12
 B,B,B,B, B,2 B,2 | B,B,B,B, B,2 B,2 | B,B,B,B, DDA,B, | F,6 z2 |] %16
V:4
 B,,3 B,, B,,2 B,,2 | B,,3 B,, C,2 F,2 | F,3 F, F,2 F,2 | F,2 F,2 B,,4 | B,,3 B,, B,,2 B,,2 | %5
 D,3 D, E,2 E,2 | C,3 C, C,2 C,2 | C,2 C,2 F,4 | B,,3 B,, B,,B,,B,,B,, | C,C,F,F, F,4 | %10
 F,3 F, F,F,F,A, | B,B,=B,B, C4 | B,B,B,B, B,,2 B,,2 | D,D,D,D, E,2 E,2 | %14
 G,G,_G,G, !fermata!F,F,!fermata!F,B,, | B,,6 z2 |] %16

